static/img/pages/customers/logos/datron.svg

<?xml version="1.0" encoding="UTF-8" standalone="no"?> <!-- Created with Vectornator for iOS (http://vectornator.io/) --><!DOCTYPE svg PUBLIC "-//W3C//DTD SVG 1.1//EN" "http://www.w3.org/Graphics/SVG/1.1/DTD/svg11.dtd">
<svg height="100%" style="fill-rule:nonzero;clip-rule:evenodd;stroke-linecap:round;stroke-linejoin:round;" xmlns:xlink="http://www.w3.org/1999/xlink" xmlns="http://www.w3.org/2000/svg" xml:space="preserve" width="100%" xmlns:vectornator="http://vectornator.io" version="1.1" viewBox="0 0 144 56">
<metadata>
<vectornator:setting key="DimensionsVisible" value="1"/>
<vectornator:setting key="PencilOnly" value="0"/>
<vectornator:setting key="SnapToPoints" value="0"/>
<vectornator:setting key="OutlineMode" value="0"/>
<vectornator:setting key="CMYKEnabledKey" value="0"/>
<vectornator:setting key="RulersVisible" value="1"/>
<vectornator:setting key="SnapToEdges" value="0"/>
<vectornator:setting key="GuidesVisible" value="1"/>
<vectornator:setting key="DisplayWhiteBackground" value="0"/>
<vectornator:setting key="doHistoryDisabled" value="0"/>
<vectornator:setting key="SnapToGuides" value="1"/>
<vectornator:setting key="TimeLapseWatermarkDisabled" value="0"/>
<vectornator:setting key="Units" value="Points"/>
<vectornator:setting key="DynamicGuides" value="0"/>
<vectornator:setting key="IsolateActiveLayer" value="0"/>
<vectornator:setting key="SnapToGrid" value="1"/>
</metadata>
<defs/>
<g id="Layer 1" vectornator:layerName="Layer 1">
<path d="M17.2603+17.6251L17.2603+19.8642L126.74+19.8642L126.74+17.6251L17.2603+17.6251ZM97.9403+21.4396C95.3317+21.4323+93.0926+21.4396+92.9613+21.4541C91.1939+21.6936+89.9807+22.3731+89.4556+23.4307C88.9937+24.3496+88.9463+24.7678+88.9463+27.9319C88.9463+30.4494+88.9621+30.859+89.0934+31.4073C89.3803+32.6423+89.8811+33.3145+90.9228+33.8311C92.0885+34.4182+92.0898+34.4182+97.7483+34.4182C102.697+34.4182+102.772+34.4109+103.368+34.248C105.066+33.7618+105.846+33.0276+106.256+31.5227C106.379+31.0827+106.396+30.6499+106.396+27.9319C106.396+24.5514+106.379+24.3825+105.916+23.4404C105.483+22.5676+104.634+21.9732+103.322+21.6255C102.711+21.4639+102.544+21.4554+97.9415+21.4396L97.9403+21.4396ZM97.9403+24.6827C100.644+24.6985+100.774+24.707+101.191+24.8687C101.701+25.0693+101.963+25.3233+102.202+25.8484C102.356+26.1949+102.38+26.3882+102.403+27.6305C102.44+29.1828+102.356+29.9243+102.087+30.3959C101.647+31.1763+101.329+31.2286+97.4541+31.1897C94.0408+31.1593+93.9411+31.1532+93.4852+30.6974C93.0598+30.2646+92.9625+29.7857+92.9625+28.0474C92.9625+26.3651+93.0294+25.9177+93.4002+25.4157C93.6554+25.0607+94.0724+24.8444+94.7057+24.735C94.9366+24.6973+96.3892+24.6669+97.9415+24.6827L97.9403+24.6827ZM17.2603+21.5562L17.2603+34.3015L23.4987+34.3015C27.1976+34.3015+30.0166+34.2711+30.4262+34.2249C32.3176+34.0086+33.391+33.4129+33.9307+32.2703C34.3318+31.4133+34.3634+31.1277+34.3634+27.8942C34.3634+25.2844+34.3464+24.859+34.2236+24.4201C33.814+22.9213+32.9655+22.1482+31.282+21.7702C30.611+21.6243+30.2925+21.6097+23.9229+21.5879L17.2615+21.5562L17.2603+21.5562ZM21.1988+24.7982L25.1956+24.8201L29.196+24.8444L29.5753+25.0376C29.8999+25.1993+30.0008+25.3075+30.1928+25.6941L30.4238+26.156L30.4238+27.8942C30.4238+29.4988+30.4092+29.6532+30.2633+29.985C30.1697+30.1795+30.0008+30.4348+29.8768+30.5503C29.4294+30.9672+29.2337+30.9818+25.0412+30.9818L21.1988+30.9818C21.1988+30.9818+21.1988+24.7982+21.1988+24.7982ZM70.3784+21.5562L70.3784+34.3015L74.3169+34.3015L74.3169+30.9745L77.7351+30.9964C81.0013+31.0207+81.1642+31.028+81.4183+31.1751C81.8899+31.4534+81.9969+31.7768+82.02+33.12L82.0516+34.3015L85.9888+34.3015L85.9572+32.6958C85.9183+30.9818+85.86+30.6743+85.4649+30.1564C85.2339+29.8477+84.7076+29.5304+84.2129+29.3991L83.8518+29.308L84.1606+29.2204C84.3308+29.1742+84.6614+29.0223+84.8936+28.8837C85.4041+28.5737+85.7506+28.0413+85.8903+27.3849C85.99+26.8525+86.0046+24.7447+85.9049+24.2196C85.6424+22.8533+84.9933+22.1276+83.6804+21.741C83.2793+21.6255+82.5609+21.6073+76.8088+21.5769C76.8088+21.5769+70.3784+21.5562+70.3784+21.5562ZM77.4263+24.7909C80.7995+24.7678+81.3247+24.7909+81.7112+24.9915C82.0965+25.192+82.2047+25.5312+82.1743+26.4343C82.15+27.1442+82.1367+27.2074+81.9349+27.4165C81.7775+27.564+81.5876+27.6723+81.3806+27.7326C81.1569+27.7861+79.8587+27.8177+77.6816+27.8177L74.3157+27.8177L74.3157+24.8055C74.3157+24.8055+77.4263+24.7909+77.4263+24.7909ZM42.5284+21.5623L39.103+27.8626C37.2188+31.3295+35.6653+34.1933+35.6507+34.2322C35.6349+34.2711+36.577+34.3015+37.812+34.3015L39.9976+34.3015L40.5604+33.1832L41.1172+32.0624L45.1006+32.077L49.0913+32.1013L49.6797+33.1966L50.2668+34.3027L54.6355+34.3027L54.3973+33.853C54.266+33.6135+52.6894+30.7581+50.8989+27.5077L47.6338+21.6012L45.086+21.5769C45.086+21.5769+42.5284+21.5623+42.5284+21.5623ZM45.0544+24.5733C45.0787+24.5733+45.6403+25.609+46.3125+26.8829C46.9762+28.1495+47.5257+29.2071+47.5257+29.2375C47.5257+29.2618+46.4304+29.2836+45.086+29.2836C43.5118+29.2836+42.6609+29.252+42.6755+29.2058C42.7375+29.0138+45.024+24.5745+45.0556+24.5745L45.0544+24.5733ZM52.8523+21.5623L52.8523+24.6511L58.3345+24.6511L58.3345+34.3027L62.3496+34.3027L62.3642+29.4915L62.3885+24.69L65.1114+24.6657L67.8306+24.6511L67.8306+21.5635L52.8547+21.5635L52.8523+21.5623ZM109.444+21.6207L109.46+27.966L109.483+34.321L111.436+34.3453L113.383+34.3599L113.383+29.7516C113.383+25.4364+113.389+25.1483+113.513+25.2637C113.582+25.3415+115.228+27.4032+117.166+29.8586L120.685+34.321L123.712+34.3453L126.74+34.3599L126.74+21.6207L122.879+21.6207L122.879+26.2216C122.879+28.8618+122.847+30.8092+122.809+30.7934C122.77+30.7788+121.119+28.7075+119.134+26.19L115.52+21.6207C115.52+21.6207+109.444+21.6207+109.444+21.6207ZM17.2603+36.1358L17.2603+38.3749L126.74+38.3749L126.74+36.1358L17.2603+36.1358Z" fill-rule="evenodd" fill="#ffffff" opacity="1"/>
</g>
</svg>

<svg xmlns:xlink="http://www.w3.org/1999/xlink" xmlns="http://www.w3.org/2000/svg" xml:space="preserve" xmlns:vectornator="http://vectornator.io" viewBox="0 0 144 56" clip-rule="evenodd" stroke-linecap="round" stroke-linejoin="round">
  <path d="M17.26 17.625v2.24h109.48v-2.24H17.26Zm80.68 3.815c-2.608-.008-4.847 0-4.979.014-1.767.24-2.98.92-3.505 1.977-.462.919-.51 1.337-.51 4.5 0 2.518.016 2.928.147 3.476.287 1.235.788 1.908 1.83 2.424 1.165.587 1.167.587 6.825.587 4.949 0 5.024-.007 5.62-.17 1.698-.486 2.478-1.22 2.888-2.725.123-.44.14-.873.14-3.591 0-3.38-.017-3.55-.48-4.492-.433-.872-1.282-1.467-2.594-1.815-.611-.161-.778-.17-5.38-.185h-.002Zm0 3.243c2.704.015 2.834.024 3.251.186.51.2.772.454 1.011.98.154.346.178.54.201 1.782.037 1.552-.047 2.293-.316 2.765-.44.78-.758.833-4.633.794-3.413-.03-3.513-.037-3.969-.493-.425-.432-.522-.911-.522-2.65 0-1.682.066-2.13.437-2.631.255-.355.672-.572 1.306-.681.23-.038 1.683-.068 3.236-.052h-.002Zm-80.68-3.127v12.745H23.5c3.699 0 6.518-.03 6.927-.076 1.892-.216 2.965-.812 3.505-1.955.4-.857.432-1.142.432-4.376 0-2.61-.017-3.035-.14-3.474-.409-1.499-1.258-2.272-2.941-2.65-.671-.146-.99-.16-7.36-.182l-6.66-.032h-.002Zm3.939 3.242 3.997.022 4 .024.38.194c.324.161.425.27.617.656l.23.462v1.738c0 1.605-.014 1.76-.16 2.091-.093.195-.262.45-.386.565-.448.417-.643.432-4.836.432H21.2v-6.184Zm49.18-3.242v12.745h3.938v-3.327l3.418.022c3.266.025 3.43.032 3.683.18.472.277.579.6.602 1.944l.032 1.181h3.937l-.032-1.605c-.039-1.714-.097-2.022-.492-2.54-.231-.308-.757-.626-1.252-.757l-.361-.091.309-.088c.17-.046.5-.198.733-.336.51-.31.857-.843.996-1.5.1-.532.115-2.64.015-3.164-.263-1.367-.912-2.092-2.225-2.479-.4-.116-1.12-.134-6.871-.164l-6.43-.02Zm7.047 3.235c3.373-.023 3.899 0 4.285.2.386.201.494.54.463 1.443-.024.71-.037.773-.24.982a1.372 1.372 0 0 1-.553.317c-.224.053-1.522.085-3.7.085h-3.365v-3.013l3.11-.014Zm-34.898-3.229-3.425 6.3a1430.83 1430.83 0 0 0-3.452 6.37c-.016.04.926.07 2.161.07h2.186l.562-1.119.557-1.12 3.984.014 3.99.024.589 1.096.587 1.106h4.368l-.238-.45c-.131-.24-1.708-3.095-3.498-6.345L47.634 21.6l-2.548-.024-2.558-.015Zm2.526 3.011c.025 0 .586 1.036 1.258 2.31.664 1.267 1.214 2.324 1.214 2.355 0 .024-1.096.046-2.44.046-1.574 0-2.425-.032-2.41-.078.061-.192 2.348-4.631 2.38-4.631l-.002-.002Zm7.798-3.01v3.088h5.483v9.652h4.015l.014-4.811.025-4.802 2.722-.024 2.72-.015v-3.087H52.855l-.003-.002Zm56.592.058.016 6.345.023 6.355 1.953.024 1.947.015v-4.608c0-4.316.006-4.604.13-4.488.069.078 1.715 2.14 3.653 4.595l3.519 4.462 3.027.024 3.028.015V21.62h-3.861v4.602c0 2.64-.032 4.587-.07 4.571-.039-.014-1.69-2.085-3.675-4.603l-3.614-4.57h-6.076ZM17.26 36.136v2.239h109.48v-2.24H17.26Z" fill-rule="evenodd" fill="#ffffff" vectornator:layerName="Layer 1"/>
</svg>
